assets/icons/fire-disabled.svg

<svg width="20" height="20" viewBox="0 0 20 20" fill="none" xmlns="http://www.w3.org/2000/svg">
<path opacity="0.5" d="M10.6933 18.1675C13.2983 17.6458 16.6667 15.7716 16.6667 10.9258C16.6667 6.51665 13.4392 3.57998 11.1183 2.23082C10.6025 1.93082 10 2.32498 10 2.92082V4.44415C10 5.64582 9.495 7.83915 8.09167 8.75165C7.375 9.21748 6.6 8.51998 6.51333 7.66998L6.44167 6.97165C6.35833 6.15998 5.53167 5.66748 4.88333 6.16248C3.7175 7.04998 2.5 8.60832 2.5 10.925C2.5 16.8508 6.9075 18.3333 9.11083 18.3333C9.23972 18.3333 9.37417 18.3292 9.51417 18.3208C9.88583 18.2742 9.51417 18.4033 10.6933 18.1666" fill="currentColor"/>
<path d="M6.66699 15.3702C6.66699 17.5535 8.42616 18.2285 9.51449 18.3219C9.88616 18.2752 9.51449 18.4044 10.6937 18.1677C11.5595 17.8619 12.5003 17.0769 12.5003 15.3702C12.5003 14.2894 11.8178 13.6219 11.2837 13.3094C11.1203 13.2135 10.9303 13.3344 10.9162 13.5227C10.8695 14.121 10.2945 14.5977 9.90366 14.1427C9.55783 13.741 9.41199 13.1535 9.41199 12.7777V12.286C9.41199 11.991 9.11449 11.7944 8.85949 11.946C7.91283 12.5069 6.66699 13.6619 6.66699 15.3702Z" fill="currentColor"/>
</svg>

<svg xmlns="http://www.w3.org/2000/svg" width="20" height="20" fill="none" viewBox="0 0 20 20"><path fill="currentColor" d="M10.693 18.168c2.605-.522 5.974-2.396 5.974-7.242 0-4.41-3.228-7.346-5.549-8.695-.516-.3-1.118.094-1.118.69v1.523c0 1.202-.505 3.395-1.908 4.308-.717.465-1.492-.232-1.579-1.082l-.071-.698c-.084-.812-.91-1.305-1.559-.81C3.717 7.05 2.5 8.608 2.5 10.925c0 5.926 4.408 7.408 6.61 7.408q.194 0 .404-.012c.372-.047 0 .082 1.18-.154" opacity=".5"/><path fill="currentColor" d="M6.667 15.37c0 2.184 1.76 2.859 2.847 2.952.372-.047 0 .082 1.18-.154.865-.306 1.806-1.091 1.806-2.798 0-1.08-.682-1.748-1.216-2.06-.164-.097-.354.024-.368.213-.046.598-.622 1.075-1.012.62-.346-.402-.492-.99-.492-1.365v-.492c0-.295-.298-.492-.553-.34-.946.56-2.192 1.716-2.192 3.424"/></svg>
